X: 2
T: Lad O'Beirne's
R: reel
M: 4/4
L: 1/8
K: Gmaj
|:DG~G2 DG~G2|AcBG AE~E2|DG~G2 DGBd|e2dg edge|dB~B2 AE~E2|cE~E2 GEDB,|DEGA B2Bc|1 dBAc BGGE:|2 dBAc BGG2||:d2Be d2Bd|e2dg edge|dB~B2 dBGB|cE~E2 GED2|Bd~d2 Bdef|g2fa gedB|DEGA B2Bc|dBAc BGG2:|


Tune 406	Setting 28248

